X:1
T:6 Lieder, Op.25
T:Die Wolken
T:5. Die Wolken
T:Josephine Lang
T:6 Lieder, Op.25
T:Felix Reinhold Köstlin
T:OpenScore (CC0)
T:OpenScore (CC0)
T:OpenScore (CC0)
C:Josephine Lang
Z:Felix Reinhold Köstlin
Z:OpenScore (CC0)
%%score ( 1 2 ) { 3 | ( 4 5 ) }
L:1/8
Q:1/4=120
M:2/4
K:Eb
V:1 treble nm="Voice"
V:2 treble 
V:3 treble nm="Pianoforte"
V:4 treble 
V:5 treble 
V:1
"^Ziemlich lebhaft." z4 | z4 | z4 | z4 | z4 | z4 | z4 | z4 |"^1" z4 |!p! E2 B,3/2 B,/ | E2 B,2 | %11
w: |||||||||Rasch wie die|Pfei- le|
 FE D3/2 C/ | D2 z2 | F2 G3/2 G/ | A2 G3/2 G/ | F2 G3/2 E/ | (G2 F) z | E2 B, B, | (EB,) E z/ F/ | %19
w: zieh'n _ sie da-|hin,|ach! dass du|wüss- test, wie|weit und wo-|hin, _|flö- gest so|ger- * ne von|
 G4 | D2 z2 | G2 =A3/2 A/ | =Bc d c | =B2 =A2 | G2 z2 | _A2 G F | Bc B A | GF E e | B4 | %29
w: hin-|nen!|flö- gest so|ger- * ne von|hin- *|nen!|leicht wie der|Vo- * gel im|luf- * ti- gen|Raum,|
 A2 G3/2 F/ | G2 F E | Fe dc | (d2 B) z |!mf! e2!p! c A |!<(! B2 G3/2 E/!<)! |!ff! e3 c | B2 z2 | %37
w: flö- gest du|dort in der|Wol- * ke *|Saum, _|Le- ben und|Licht zu ge-|wi- *|nen,|
!p! c2 B3/2 A/ | GB e3/2 f/ | g3 f | e2 z2 |!p! B2 c3/2 B/ | eB B z/ B/ | B2 c>B | B2 z2 | %45
w: Le- ben und|Licht _ zu ge-|win- *|nen,|flö- gest du|ger- * ne von|hin- * *|nen!|
 B2 =B3/2 B/ | c2 d3/2 d/ | !^!e2 !^!=e2 |"^stringendo" f2 ^f2 |!f!!<(! !^!g2 e B | %50
w: Le- ben und|Licht zu ge-|win- *|* nen,|Le- ben und|
 x2 x3/2!<)!!ff!!>(! g/ | b3 d!>)! |!f! e2 z2 | z4 | z4 | z4 | z4 | z4 | z4 | z4 | z4 |] %61
w: |||||||||||
V:2
 x4 | x4 | x4 | x4 | x4 | x4 | x4 | x4 | x4 | x4 | x4 | x4 | x4 | x4 | x4 | x4 | x4 | x4 | x4 | %19
w: |||||||||||||||||||
 x4 | x4 | x4 | x4 | x4 | x4 | x4 | x4 | x4 | x4 | x4 | x4 | x4 | x4 | x4 | x4 | x4 | x4 | x4 | %38
w: |||||||||||||||||||
 x4 | x4 | x4 | x4 | x4 | x4 | x4 | x4 | x4 | x4 | x4 | x4 | GB e3/2 f/ | g3 f | e2 x2 | x4 | x4 | %55
w: ||||||||||||Licht _ zu ge-|win- *|nen!|||
 x4 | x4 | x4 | x4 | x4 | x4 |] %61
w: ||||||
V:3
!pp! (3z d{/c'}[ab] (3z!8va(! d'{/c''}[a'b']!8va)! | (3z"^loco" e{/c'}[gb] (3z e{/c'}[gb] | %2
!ff! (3z d{/c'}[ab] (3z!8va(! d'{/c''}[a'b'] | (3z e{/c'}[gb] (3z e'{/c''}[g'b'] | %4
 (3z e{/c'}[gb] (3z"_dim." e'{/c''}[g'b']!8va)! |"^loco" !trill(!T[gb]4- | !trill)![gb]4{=ab} | %7
!p! [ee'] z z2 | z4 |!p! (3z GB (3z GB | (3z GB (3z GB | (3z AB (3z AB | (3z AB (3z AB | %13
!<(! (3z FB (3z GB!<)! |!>(! (3z AB (3z GB!>)! | (3z FB!<(! (3z GE!<)! | (3z!>(! GB (3z FB!>)! | %17
!p! (3z GB (3z GB | (3z GB (3z GB | (3z =Bd (3z Bd | (3z =Bd (3z Bd |!<(! (3z =Bd (3z =A=e!<)! | %22
 (3z =Bd!>(! (3z cg | (3z =Bd (3z"^*" !courtesy!=Ad!>)! | (3z =G=B (3z DG | %25
 (3z D{/c}[A_B] (3z!8va(! d{/c'}[ab] | (3z d'{/c''}[a'b'] (3z d{/c'}[ab]!8va)! | %27
 (3z"^loco" E{/c}[GB] (3z!8va(! e{/c'}[gb] | (3z e'{/c''}[g'b'] (3z e{/c'}[gb]!8va)! | %29
 (3z"^loco" D{/c}[FB] (3z d{/c'}[fb] | (3z G{/f}[Be] (3z g{/f'}[be'] | %31
 (3z =A{/g}[cf] (3z A{/g}[cf] | (3z d{/c'}[fb] (3z!8va(! d'{/c''}[f'b'] | %33
!f! (3z e'e''!p! (3z ee'!8va)! | (3z"^loco" Ee (3z Ee |!ff!!8va(! (3z e'e'' (3z ee'!8va)! | %36
 (3z"^loco" Ee!p! (3z Ee | (3z!<(! C[EAc] (3z D[ABd]!<)! |!mp! (3z E[GBe] (3z"_cresc." F[cef] | %39
 (3z G[Beg]!f! (3z B[dfb] |!f! (3z ee' (3z Ee |!pp! (3z d{/c'}[ab] (3z!8va(! d'{/c''}[a'b'] | %42
 (3z e{/c'}[gb] (3z e'{/c''}[g'b'] | (3z d{/c'}[ab] (3z d'{/c''}[a'b'] | %44
 (3z e{/c'}[gb] (3z e'{/c''}[g'b']!8va)! |!pp!"^loco" (3z GB (3z [FG]=B | %46
 (3z"_cresc." [EG]c (3z [DG]d | (3z!<(! E[Gce] (3z =E[Gc=e]!<)! | (3z F[Acf] (3z ^F[ce^f] | %49
!f! (3z G[Beg] (3z G[Beg] | (3z B[egb] (3z!8va(! e[gbe'] |!ff! (3z g[be'g'] (3z b[d'f'b'] | %52
!f! (3z e'e''!8va)!!p! (3z"^loco" Ee |!p! (3z!8va(! d{/c'}[ab] (3z d'{/c''}[a'b'] | %54
 (3z e{/c'}[gb] (3z e'{/c''}[g'b'] | (3z d{/c'}[ab] (3z d'{/c''}[a'b'] | %56
 (3z e{/c'}[gb] (3z e'{/c''}[g'b'] | (3z e{/c'}[gb]!8va)! (3z"^loco" e{/c'}[gb] | %58
!f! !trill(!T[gb]4- |"_dim." !trill)![gb]4{=ab} |!8va(!!ped! [e'e'']!8va)! z !fermata!z2!ped-up! |] %61
V:4
 (F2 B,>B, | GFEB,) | (F2 B,>B, | GF"^leggiero"EB, | GFEB,) |"^legato" GFEB, |[K:bass] G,F,E,B,, | %7
 [E,,B,,G,] z z2 |"^1" z4 |[K:treble] E2 B,>B, | (E2 B,) z | FEDC | D2 B,2 | D2 E>E | [B,F]2 E>E | %15
 D2 EC | E2 D2 | E2 B,>B, | EB,EF | G4 | D4 | G2 [CG]>[CG] | [DG]2 [=EG]2 | G2 ^F2 | %24
[K:bass] D2 =B,2 |"^leggiero" _B,,2 F,>F, | B,2 F,2 | [B,,B,]2[K:treble] !>![G,E]>[G,E] | %28
 ((!>![B,G]2 [G,E])) z |[K:bass] [B,,,B,,] z [A,B,DF] z | [E,,E,] z[K:treble] [G,B,EG] z | %31
[K:bass] [F,,F,]2 [=A,CEF]2 | [B,,B,]2[K:treble] [DFBd]2 |[K:bass] [E,G,B,]2 [A,C]2 | %34
"_*  in the Kistner 1860 edition the A in the piano part in measure 24 is not marked as a natural" [G,B,]2 [E,G,]>[E,-G,] | %35
 [G,B,]2 [A,C]2 | [G,B,]2 [E,G,]2 | [A,,,A,,]2 [F,,,F,,]2 | [G,,,G,,]2 [=A,,,=A,,]2 | %39
 [B,,,B,,]2 [B,,B,]2 | [E,,E,]2 [G,B,]2 |[K:treble] F2 B,>B,- | [B,G]F EB, | F2 B,>B, | GFEB, | %45
 E2 D2 | C2 =B,>B, | C2 B,2 |[K:bass]"^stringendo" [A,,A,]2 [=A,,=A,]2 | [B,,B,]2 [B,,B,]2 | %50
 [G,,G,]2 [E,,E,]2 | [B,,,B,,]2 [B,,F,A,B,]2 | [E,G,B,]2 [G,B,]2 |[K:treble] (F2 B,>B, | GFEB,) | %55
 (F2 B,>B, | GFEB,) | (GFEB, | GFEB, |[K:bass] G,F,E,B,,) | [E,,B,,G,] z !fermata!z2 |] %61
V:5
 x4 | x4 | x4 | x4 | x4 | x4 |[K:bass] x4 | x4 | x4 |[K:treble] x4 | x4 | x4 | x4 | x4 | x4 | x4 | %16
 B,4 | x4 | x4 | x4 | x4 | x4 | x4 | D4 |[K:bass] G,4 | x4 | x4 | x2[K:treble] x2 | x4 | %29
[K:bass] x4 | x2[K:treble] x2 |[K:bass] x4 | x2[K:treble] x2 |[K:bass] E,4 | x4 | E,4 | x4 | x4 | %38
 x4 | x4 | x4 |[K:treble] x4 | x4 | x4 | x4 | x4 | x4 | x4 |[K:bass] x4 | x4 | x4 | x4 | x4 | %53
[K:treble] x4 | x4 | x4 | x4 | x4 | x4 |[K:bass] x4 | x4 |] %61

